X:95
T:Honest Will
M:2/4
L:1/8
B:Thompson's Compleat Collection of 200 Favourite Country Dances, vol. 2 (London, 1765)
Z:Transcribed and edited by Flynn Titford-Mock, 2007
Z:abc's:AK/Fiddler's Companion
K:A
c/d/ | ecAa | "tr"f2 ed | cecA | BGFE | ecAa | "tr"f2 ea | (3gab (3^def | e3 :|
|: e | ceBe | ceBe | (3cde (3fga | (3gab (3Bcd | ceBe | ceBe | (3cBA (3EFG | A3 :|

